src/svg/16/fire_16.svg

<?xml version="1.0" encoding="UTF-8"?>
<svg width="16px" height="16px" viewBox="0 0 16 16" version="1.1" xmlns="http://www.w3.org/2000/svg" xmlns:xlink="http://www.w3.org/1999/xlink">
    <!-- Generator: Sketch 50.2 (55047) - http://www.bohemiancoding.com/sketch -->
    <title>fire_16</title>
    <desc>Created with Sketch.</desc>
    <defs></defs>
    <g id="Page-2" stroke="none" stroke-width="1" fill="none" fill-rule="evenodd">
        <g id="fire_16">
            <rect id="Rectangle-5" x="0" y="0" width="16" height="16"></rect>
            <path d="M7.45628889,0.0492152463 C7.51472552,0.00588329723 7.58913608,-0.00985099487 7.6601117,0.00611641803 C7.79484504,0.0364274261 7.87949606,0.170222302 7.84918505,0.304955637 L7.84913275,0.304943871 C7.81372682,0.462324294 7.76939883,0.582126816 7.71614877,0.664351436 C5.82844372,3.57919969 6.65750897,5.331297 7.93041262,5.5195791 C9.24698044,5.71431981 10.2100703,4.83221961 10.0040004,2.92826084 C9.96851699,2.60041552 9.93885237,2.32412186 9.9150066,2.09937984 C9.90938293,2.04637771 9.92234459,1.99306791 9.95167558,1.9485646 C10.021568,1.84251836 10.1641944,1.81320987 10.2702406,1.88310225 L10.2702592,1.88307413 C10.6981311,2.16507362 11.2101603,2.67786259 11.8063469,3.42144102 C13.9280976,6.06774011 14.0110827,8.28273873 13.9991404,9.23542037 C13.956324,12.6510511 11.427896,15 7.99957021,15 C4.57124437,15 2,12.6514676 2,9.23542037 C2.01518519,6.649186 3.3215606,3.00875488 6.92808457,0.435242267 C7.06278788,0.339121831 7.23885598,0.210446157 7.45628889,0.0492152463 Z" id="Mask" fill="currentColor" fill-rule="nonzero"></path>
        </g>
    </g>
</svg>

<svg xmlns="http://www.w3.org/2000/svg" width="16" height="16" fill="none" viewBox="0 0 16 16"><path fill="currentColor" d="M7.4563.0492a.25.25 0 0 1 .3929.2558c-.0355.1573-.0798.2771-.133.3594-1.8878 2.9148-1.0587 4.667.2142 4.8552 1.3166.1947 2.2797-.6874 2.0736-2.5913a404.4716 404.4716 0 0 1-.089-.829.2299.2299 0 0 1 .3552-.2162h.0001c.4278.282.9399.7948 1.536 1.5384 2.1218 2.6463 2.2048 4.8613 2.1928 5.814C13.9563 12.651 11.4279 15 7.9996 15 4.5712 15 2 12.6515 2 9.2354 2.0152 6.6492 3.3216 3.0088 6.928.4353c.1348-.0962.3109-.2248.5283-.386Z"/></svg>
